Newaita-dark/apps/24/itch.svg

<svg height="24" viewBox="0 0 24 24" width="24" xmlns="http://www.w3.org/2000/svg" xmlns:xlink="http://www.w3.org/1999/xlink"><linearGradient id="a" gradientTransform="matrix(.0437158 0 0 .0468795 .745732 10.079089)" gradientUnits="userSpaceOnUse" x1="254" x2="254" y1="233.5" y2="254.666672"><stop offset="0" stop-opacity=".27451"/><stop offset="1" stop-opacity="0"/></linearGradient><linearGradient id="b"><stop offset="0" stop-opacity=".313726"/><stop offset=".222222" stop-opacity=".27451"/><stop offset="1" stop-opacity="0"/></linearGradient><radialGradient id="c" cx="450.908936" cy="189.579361" gradientTransform="matrix(.00000012 -.0585994 -.0983606 -.00000008 37.899194 47.696499)" gradientUnits="userSpaceOnUse" r="21.166656" xlink:href="#b"/><radialGradient id="d" cx="450.908936" cy="189.579361" gradientTransform="matrix(-.00000012 .0585994 .0983606 .00000008 -14.08442 -5.645609)" gradientUnits="userSpaceOnUse" r="21.166656" xlink:href="#b"/><radialGradient id="e" cx="450.908936" cy="189.579361" gradientTransform="matrix(-.00000012 -.0585994 .0983606 -.00000008 -14.08442 47.696499)" gradientUnits="userSpaceOnUse" r="21.166656" xlink:href="#b"/><radialGradient id="f" cx="450.908936" cy="189.579361" gradientTransform="matrix(.00000012 .0585994 -.0983606 .00000008 37.899193 -5.64561)" gradientUnits="userSpaceOnUse" r="21.166656" xlink:href="#b"/><linearGradient id="g" gradientUnits="userSpaceOnUse" x1="11.907393" x2="11.907393" y1="21.02545025" y2="2.17207774998"><stop offset="0" stop-color="#f44336"/><stop offset="1" stop-color="#ef5350"/></linearGradient><linearGradient id="h" gradientUnits="userSpaceOnUse" x1="11.912181" x2="11.912181" y1="20.77733704136" y2="1.92401704136"><stop offset="0" stop-color="#bdbdbd"/><stop offset="1" stop-color="#e0e0e0"/></linearGradient><path d="m4.332031 21.027344h15.152344v.992187h-15.152344zm0 0" fill="url(#a)"/><path d="m19.484375 21.027344h1.851563v-.996094h-1.851563zm0 0" fill="url(#c)"/><path d="m4.332031 21.027344h-1.851562v.992187h1.851562zm0 0" fill="url(#d)"/><path d="m4.332031 21.027344h-1.851562v-.996094h1.851562zm0 0" fill="url(#e)"/><path d="m19.484375 21.027344h1.851563v.992187h-1.851563zm0 0" fill="url(#f)"/><path d="m3.472656 2.171875h16.867188c.550781 0 .996094.445313.996094.992187v16.867188c0 .550781-.445313.996094-.996094.996094h-16.867188c-.546875 0-.992187-.445313-.992187-.996094v-16.867188c0-.546874.445312-.992187.992187-.992187zm0 0" fill="url(#g)"/><path d="m3.472656 2.171875c-.550781 0-.992187.441406-.992187.992187v.25c0-.546874.441406-.992187.992187-.992187h16.867188c.550781 0 .996094.445313.996094.992187v-.25c0-.550781-.445313-.992187-.996094-.992187zm0 0" fill="#fff" fill-opacity=".392157"/><path d="m3.472656 21.027344c-.550781 0-.992187-.445313-.992187-.996094v-.371094c0 .550782.441406.992188.992187.992188h16.867188c.550781 0 .996094-.441406.996094-.992188v.371094c0 .550781-.445313.996094-.996094.996094zm0 0" fill-opacity=".235294"/><path d="m74.076259-168.671091h359.798975c11.748878 0 21.247971 9.499093 21.247971 21.164646v359.798974c0 11.748878-9.499093 21.247971-21.247971 21.247971h-359.798975c-11.665552 0-21.164645-9.499093-21.164645-21.247971v-359.798974c0-11.665553 9.499093-21.164646 21.164645-21.164646zm0 0" fill="none" stroke="#212121" stroke-linecap="round" stroke-linejoin="round" stroke-width="3" transform="matrix(.0468795 0 0 .0468795 0 10.079087)"/><path d="m8.933594 7.628906c-1.371094 0-2.480469 1.105469-2.480469 2.480469 0 .5625.1875 1.078125.496094 1.492187v.542969c0 1.648438.523437 2.976563 1.167969 2.976563h.144531c.59375 0 1.082031-1.117188 1.160156-2.578125.253906-.050781.492187-.136719.710937-.257813.042969.554688 1.285157.554688 1.285157-.191406h.992187c0 .746094 1.238282.746094 1.28125.191406.21875.121094.457032.207032.710938.257813.078125 1.460937.566406 2.578125 1.160156 2.578125h.144531c.644531 0 1.167969-1.328125 1.167969-2.976563v-.542969c.308594-.414062.496094-.929687.496094-1.492187 0-1.375-1.109375-2.480469-2.480469-2.480469-.816406 0-1.539063.390625-1.988281.992188h-1.980469c-.449219-.601563-1.171875-.992188-1.988281-.992188zm2.730468 1.613282h.496094c.136719 0 .25.109374.25.246093v.746094h.496094l-.992188 1.242187-.992187-1.242187h.496094v-.746094c0-.136719.109375-.246093.246093-.246093zm0 0" fill="url(#h)"/><path d="m8.933594 7.628906c-1.371094 0-2.480469 1.105469-2.480469 2.480469 0 .054687.003906.105469.007813.15625.078124-1.300781 1.152343-2.324219 2.472656-2.324219.816406 0 1.539062.386719 1.988281.992188h1.980469c.449218-.605469 1.171875-.992188 1.988281-.992188 1.320313 0 2.394531 1.023438 2.472656 2.324219.003907-.050781.007813-.101563.007813-.15625 0-1.375-1.109375-2.480469-2.480469-2.480469-.816406 0-1.539063.390625-1.988281.992188h-1.980469c-.449219-.601563-1.171875-.992188-1.988281-.992188zm1.988281 2.914063.992187 1.242187.992188-1.242187h-.25l-.742188.933593-.746093-.933593zm0 0" fill="#f7f7f7"/><path d="m11.664062 9.238281c-.136718 0-.246093.109375-.246093.25v.546875c0-.140625.109375-.25.246093-.25h.496094c.136719 0 .25.109375.25.25v-.546875c0-.140625-.113281-.25-.25-.25zm-.742187.992188.4375.546875h.058594v-.546875zm1.488281 0v.546875h.058594l.4375-.546875zm-5.941406.148437c-.007812.089844-.015625.183594-.015625.273438 0 .5625.1875 1.078125.496094 1.492187v.542969c0 1.648438.523437 2.976562 1.167969 2.976562h.144531c.59375 0 1.082031-1.117187 1.160156-2.578124.253906-.046876.492187-.136719.710937-.257813.042969.554687 1.285157.554687 1.285157-.191406h.992187c0 .746093 1.238282.746093 1.28125.191406.21875.121094.457032.210937.710938.257813.078125 1.460937.566406 2.578124 1.160156 2.578124h.144531c.644531 0 1.167969-1.328124 1.167969-2.976562v-.542969c.308594-.414062.496094-.929687.496094-1.492187 0-.089844-.007813-.183594-.015625-.273438-.050781.457032-.222657.875-.480469 1.21875v.542969c0 1.648437-.523438 2.976563-1.167969 2.976563h-.144531c-.59375 0-1.082031-1.117188-1.160156-2.578126-.253906-.050781-.492188-.136718-.710938-.257812-.042968.554688-1.28125.554688-1.28125-.191406h-.992187c0 .746094-1.242188.746094-1.285157.191406-.21875.121094-.457031.207031-.710937.257812-.078125 1.460938-.566406 2.578126-1.160156 2.578126h-.144531c-.644532 0-1.167969-1.328126-1.167969-2.976563v-.542969c-.257813-.34375-.429688-.761718-.480469-1.21875zm0 0" fill-opacity=".235294"/><path d="m190.462287-46.974117c-29.247207 0-52.911614 23.581082-52.911614 52.911614 0 11.998854 3.999618 22.997804 10.582323 31.830294v11.582227c0 35.163309 11.1656 63.493937 24.914287 63.493937h3.083039c12.665458 0 23.08113-23.831058 24.747637-54.994748 5.41615-1.08323 10.498997-2.916389 15.165219-5.499475.916579 11.832203 27.414048 11.832203 27.414048-4.082944h21.164646c0 15.915147 26.414144 15.915147 27.330723 4.082944 4.666221 2.583086 9.749069 4.416245 15.165219 5.499475 1.666507 31.16369 12.082179 54.994748 24.747636 54.994748h3.083039c13.748687 0 24.914288-28.330628 24.914288-63.493937v-11.582227c6.582705-8.83249 10.582323-19.83144 10.582323-31.830294 0-29.330532-23.664407-52.911614-52.911614-52.911614-17.415004 0-32.830199 8.332538-42.412617 21.164646h-42.245965c-9.582419-12.832108-24.997613-21.164646-42.412617-21.164646zm58.244438 34.413381h10.582323c2.916388 0 5.332824 2.33311 5.332824 5.249498v15.915147h10.582323l-21.164646 26.49747-21.164645-26.49747h10.582322v-15.915147c0-2.916388 2.333111-5.249498 5.249499-5.249498zm0 0" fill="none" stroke="#212121" stroke-linecap="round" stroke-linejoin="round" stroke-width="3" transform="matrix(.0468795 0 0 .0468795 .004821 9.831028)"/></svg>

<?xml version="1.0" encoding="UTF-8"?>
<svg xmlns="http://www.w3.org/2000/svg" xmlns:xlink="http://www.w3.org/1999/xlink" width="24px" height="24px" viewBox="0 0 24 24" version="1.1">
<defs>
<linearGradient id="linear0" gradientUnits="userSpaceOnUse" x1="254" y1="233.5" x2="254" y2="254.666672" gradientTransform="matrix(0.0437158,0,0,0.0468795,0.745732,10.079089)">
<stop offset="0" style="stop-color:rgb(0%,0%,0%);stop-opacity:0.27451;"/>
<stop offset="1" style="stop-color:rgb(0%,0%,0%);stop-opacity:0;"/>
</linearGradient>
<radialGradient id="radial0" gradientUnits="userSpaceOnUse" cx="450.908936" cy="189.579361" fx="450.908936" fy="189.579361" r="21.166656" gradientTransform="matrix(0.000000121812,-0.0585994,-0.0983606,-0.0000000761539,37.899194,47.696499)">
<stop offset="0" style="stop-color:rgb(0%,0%,0%);stop-opacity:0.313726;"/>
<stop offset="0.222222" style="stop-color:rgb(0%,0%,0%);stop-opacity:0.27451;"/>
<stop offset="1" style="stop-color:rgb(0%,0%,0%);stop-opacity:0;"/>
</radialGradient>
<radialGradient id="radial1" gradientUnits="userSpaceOnUse" cx="450.908936" cy="189.579361" fx="450.908936" fy="189.579361" r="21.166656" gradientTransform="matrix(-0.000000121812,0.0585994,0.0983606,0.0000000761539,-14.08442,-5.645609)">
<stop offset="0" style="stop-color:rgb(0%,0%,0%);stop-opacity:0.313726;"/>
<stop offset="0.222222" style="stop-color:rgb(0%,0%,0%);stop-opacity:0.27451;"/>
<stop offset="1" style="stop-color:rgb(0%,0%,0%);stop-opacity:0;"/>
</radialGradient>
<radialGradient id="radial2" gradientUnits="userSpaceOnUse" cx="450.908936" cy="189.579361" fx="450.908936" fy="189.579361" r="21.166656" gradientTransform="matrix(-0.000000121812,-0.0585994,0.0983606,-0.0000000761539,-14.08442,47.696499)">
<stop offset="0" style="stop-color:rgb(0%,0%,0%);stop-opacity:0.313726;"/>
<stop offset="0.222222" style="stop-color:rgb(0%,0%,0%);stop-opacity:0.27451;"/>
<stop offset="1" style="stop-color:rgb(0%,0%,0%);stop-opacity:0;"/>
</radialGradient>
<radialGradient id="radial3" gradientUnits="userSpaceOnUse" cx="450.908936" cy="189.579361" fx="450.908936" fy="189.579361" r="21.166656" gradientTransform="matrix(0.000000121812,0.0585994,-0.0983606,0.0000000761539,37.899193,-5.64561)">
<stop offset="0" style="stop-color:rgb(0%,0%,0%);stop-opacity:0.313726;"/>
<stop offset="0.222222" style="stop-color:rgb(0%,0%,0%);stop-opacity:0.27451;"/>
<stop offset="1" style="stop-color:rgb(0%,0%,0%);stop-opacity:0;"/>
</radialGradient>
<linearGradient id="linear1" gradientUnits="userSpaceOnUse" x1="254" y1="233.5" x2="254" y2="-168.666672" gradientTransform="matrix(0.0468795,0,0,0.0468795,0,10.079087)">
<stop offset="0" style="stop-color:rgb(95.686275%,26.274511%,21.176471%);stop-opacity:1;"/>
<stop offset="1" style="stop-color:rgb(93.725491%,32.549021%,31.37255%);stop-opacity:1;"/>
</linearGradient>
<linearGradient id="linear2" gradientUnits="userSpaceOnUse" x1="960" y1="1715.117188" x2="960" y2="195.117188" gradientTransform="matrix(0.0124035,0,0,0.0124035,0.00482147,-0.496119)">
<stop offset="0" style="stop-color:rgb(74.117649%,74.117649%,74.117649%);stop-opacity:1;"/>
<stop offset="1" style="stop-color:rgb(87.843138%,87.843138%,87.843138%);stop-opacity:1;"/>
</linearGradient>
</defs>
<g id="surface1">
<path style=" stroke:none;fill-rule:nonzero;fill:url(#linear0);" d="M 4.332031 21.027344 L 19.484375 21.027344 L 19.484375 22.019531 L 4.332031 22.019531 Z M 4.332031 21.027344 "/>
<path style=" stroke:none;fill-rule:nonzero;fill:url(#radial0);" d="M 19.484375 21.027344 L 21.335938 21.027344 L 21.335938 20.03125 L 19.484375 20.03125 Z M 19.484375 21.027344 "/>
<path style=" stroke:none;fill-rule:nonzero;fill:url(#radial1);" d="M 4.332031 21.027344 L 2.480469 21.027344 L 2.480469 22.019531 L 4.332031 22.019531 Z M 4.332031 21.027344 "/>
<path style=" stroke:none;fill-rule:nonzero;fill:url(#radial2);" d="M 4.332031 21.027344 L 2.480469 21.027344 L 2.480469 20.03125 L 4.332031 20.03125 Z M 4.332031 21.027344 "/>
<path style=" stroke:none;fill-rule:nonzero;fill:url(#radial3);" d="M 19.484375 21.027344 L 21.335938 21.027344 L 21.335938 22.019531 L 19.484375 22.019531 Z M 19.484375 21.027344 "/>
<path style=" stroke:none;fill-rule:nonzero;fill:url(#linear1);" d="M 3.472656 2.171875 L 20.339844 2.171875 C 20.890625 2.171875 21.335938 2.617188 21.335938 3.164062 L 21.335938 20.03125 C 21.335938 20.582031 20.890625 21.027344 20.339844 21.027344 L 3.472656 21.027344 C 2.925781 21.027344 2.480469 20.582031 2.480469 20.03125 L 2.480469 3.164062 C 2.480469 2.617188 2.925781 2.171875 3.472656 2.171875 Z M 3.472656 2.171875 "/>
<path style=" stroke:none;fill-rule:nonzero;fill:rgb(100%,100%,100%);fill-opacity:0.392157;" d="M 3.472656 2.171875 C 2.921875 2.171875 2.480469 2.613281 2.480469 3.164062 L 2.480469 3.414062 C 2.480469 2.867188 2.921875 2.421875 3.472656 2.421875 L 20.339844 2.421875 C 20.890625 2.421875 21.335938 2.867188 21.335938 3.414062 L 21.335938 3.164062 C 21.335938 2.613281 20.890625 2.171875 20.339844 2.171875 Z M 3.472656 2.171875 "/>
<path style=" stroke:none;fill-rule:nonzero;fill:rgb(0%,0%,0%);fill-opacity:0.235294;" d="M 3.472656 21.027344 C 2.921875 21.027344 2.480469 20.582031 2.480469 20.03125 L 2.480469 19.660156 C 2.480469 20.210938 2.921875 20.652344 3.472656 20.652344 L 20.339844 20.652344 C 20.890625 20.652344 21.335938 20.210938 21.335938 19.660156 L 21.335938 20.03125 C 21.335938 20.582031 20.890625 21.027344 20.339844 21.027344 Z M 3.472656 21.027344 "/>
<path style="fill:none;stroke-width:3;stroke-linecap:round;stroke-linejoin:round;stroke:rgb(12.941177%,12.941177%,12.941177%);stroke-opacity:1;stroke-miterlimit:4;" d="M 74.076259 -168.671091 L 433.875234 -168.671091 C 445.624112 -168.671091 455.123205 -159.171998 455.123205 -147.506445 L 455.123205 212.292529 C 455.123205 224.041407 445.624112 233.5405 433.875234 233.5405 L 74.076259 233.5405 C 62.410707 233.5405 52.911614 224.041407 52.911614 212.292529 L 52.911614 -147.506445 C 52.911614 -159.171998 62.410707 -168.671091 74.076259 -168.671091 Z M 74.076259 -168.671091 " transform="matrix(0.0468795,0,0,0.0468795,0,10.079087)"/>
<path style=" stroke:none;fill-rule:nonzero;fill:url(#linear2);" d="M 8.933594 7.628906 C 7.5625 7.628906 6.453125 8.734375 6.453125 10.109375 C 6.453125 10.671875 6.640625 11.1875 6.949219 11.601562 L 6.949219 12.144531 C 6.949219 13.792969 7.472656 15.121094 8.117188 15.121094 L 8.261719 15.121094 C 8.855469 15.121094 9.34375 14.003906 9.421875 12.542969 C 9.675781 12.492188 9.914062 12.40625 10.132812 12.285156 C 10.175781 12.839844 11.417969 12.839844 11.417969 12.09375 L 12.410156 12.09375 C 12.410156 12.839844 13.648438 12.839844 13.691406 12.285156 C 13.910156 12.40625 14.148438 12.492188 14.402344 12.542969 C 14.480469 14.003906 14.96875 15.121094 15.5625 15.121094 L 15.707031 15.121094 C 16.351562 15.121094 16.875 13.792969 16.875 12.144531 L 16.875 11.601562 C 17.183594 11.1875 17.371094 10.671875 17.371094 10.109375 C 17.371094 8.734375 16.261719 7.628906 14.890625 7.628906 C 14.074219 7.628906 13.351562 8.019531 12.902344 8.621094 L 10.921875 8.621094 C 10.472656 8.019531 9.75 7.628906 8.933594 7.628906 Z M 11.664062 9.242188 L 12.160156 9.242188 C 12.296875 9.242188 12.410156 9.351562 12.410156 9.488281 L 12.410156 10.234375 L 12.90625 10.234375 L 11.914062 11.476562 L 10.921875 10.234375 L 11.417969 10.234375 L 11.417969 9.488281 C 11.417969 9.351562 11.527344 9.242188 11.664062 9.242188 Z M 11.664062 9.242188 "/>
<path style=" stroke:none;fill-rule:nonzero;fill:rgb(96.862745%,96.862745%,96.862745%);fill-opacity:1;" d="M 8.933594 7.628906 C 7.5625 7.628906 6.453125 8.734375 6.453125 10.109375 C 6.453125 10.164062 6.457031 10.214844 6.460938 10.265625 C 6.539062 8.964844 7.613281 7.941406 8.933594 7.941406 C 9.75 7.941406 10.472656 8.328125 10.921875 8.933594 L 12.902344 8.933594 C 13.351562 8.328125 14.074219 7.941406 14.890625 7.941406 C 16.210938 7.941406 17.285156 8.964844 17.363281 10.265625 C 17.367188 10.214844 17.371094 10.164062 17.371094 10.109375 C 17.371094 8.734375 16.261719 7.628906 14.890625 7.628906 C 14.074219 7.628906 13.351562 8.019531 12.902344 8.621094 L 10.921875 8.621094 C 10.472656 8.019531 9.75 7.628906 8.933594 7.628906 Z M 10.921875 10.542969 L 11.914062 11.785156 L 12.90625 10.542969 L 12.65625 10.542969 L 11.914062 11.476562 L 11.167969 10.542969 Z M 10.921875 10.542969 "/>
<path style=" stroke:none;fill-rule:nonzero;fill:rgb(0%,0%,0%);fill-opacity:0.235294;" d="M 11.664062 9.238281 C 11.527344 9.238281 11.417969 9.347656 11.417969 9.488281 L 11.417969 10.035156 C 11.417969 9.894531 11.527344 9.785156 11.664062 9.785156 L 12.160156 9.785156 C 12.296875 9.785156 12.410156 9.894531 12.410156 10.035156 L 12.410156 9.488281 C 12.410156 9.347656 12.296875 9.238281 12.160156 9.238281 Z M 10.921875 10.230469 L 11.359375 10.777344 L 11.417969 10.777344 L 11.417969 10.230469 Z M 12.410156 10.230469 L 12.410156 10.777344 L 12.46875 10.777344 L 12.90625 10.230469 Z M 6.46875 10.378906 C 6.460938 10.46875 6.453125 10.5625 6.453125 10.652344 C 6.453125 11.214844 6.640625 11.730469 6.949219 12.144531 L 6.949219 12.6875 C 6.949219 14.335938 7.472656 15.664062 8.117188 15.664062 L 8.261719 15.664062 C 8.855469 15.664062 9.34375 14.546875 9.421875 13.085938 C 9.675781 13.039062 9.914062 12.949219 10.132812 12.828125 C 10.175781 13.382812 11.417969 13.382812 11.417969 12.636719 L 12.410156 12.636719 C 12.410156 13.382812 13.648438 13.382812 13.691406 12.828125 C 13.910156 12.949219 14.148438 13.039062 14.402344 13.085938 C 14.480469 14.546875 14.96875 15.664062 15.5625 15.664062 L 15.707031 15.664062 C 16.351562 15.664062 16.875 14.335938 16.875 12.6875 L 16.875 12.144531 C 17.183594 11.730469 17.371094 11.214844 17.371094 10.652344 C 17.371094 10.5625 17.363281 10.46875 17.355469 10.378906 C 17.304688 10.835938 17.132812 11.253906 16.875 11.597656 L 16.875 12.140625 C 16.875 13.789062 16.351562 15.117188 15.707031 15.117188 L 15.5625 15.117188 C 14.96875 15.117188 14.480469 14 14.402344 12.539062 C 14.148438 12.488281 13.910156 12.402344 13.691406 12.28125 C 13.648438 12.835938 12.410156 12.835938 12.410156 12.089844 L 11.417969 12.089844 C 11.417969 12.835938 10.175781 12.835938 10.132812 12.28125 C 9.914062 12.402344 9.675781 12.488281 9.421875 12.539062 C 9.34375 14 8.855469 15.117188 8.261719 15.117188 L 8.117188 15.117188 C 7.472656 15.117188 6.949219 13.789062 6.949219 12.140625 L 6.949219 11.597656 C 6.691406 11.253906 6.519531 10.835938 6.46875 10.378906 Z M 6.46875 10.378906 "/>
<path style="fill:none;stroke-width:3;stroke-linecap:round;stroke-linejoin:round;stroke:rgb(12.941177%,12.941177%,12.941177%);stroke-opacity:1;stroke-miterlimit:4;" d="M 190.462287 -46.974117 C 161.21508 -46.974117 137.550673 -23.393035 137.550673 5.937497 C 137.550673 17.936351 141.550291 28.935301 148.132996 37.767791 L 148.132996 49.350018 C 148.132996 84.513327 159.298596 112.843955 173.047283 112.843955 L 176.130322 112.843955 C 188.79578 112.843955 199.211452 89.012897 200.877959 57.849207 C 206.294109 56.765977 211.376956 54.932818 216.043178 52.349732 C 216.959757 64.181935 243.457226 64.181935 243.457226 48.266788 L 264.621872 48.266788 C 264.621872 64.181935 291.036016 64.181935 291.952595 52.349732 C 296.618816 54.932818 301.701664 56.765977 307.117814 57.849207 C 308.784321 89.012897 319.199993 112.843955 331.86545 112.843955 L 334.948489 112.843955 C 348.697176 112.843955 359.862777 84.513327 359.862777 49.350018 L 359.862777 37.767791 C 366.445482 28.935301 370.4451 17.936351 370.4451 5.937497 C 370.4451 -23.393035 346.780693 -46.974117 317.533486 -46.974117 C 300.118482 -46.974117 284.703287 -38.641579 275.120869 -25.809471 L 232.874904 -25.809471 C 223.292485 -38.641579 207.877291 -46.974117 190.462287 -46.974117 Z M 248.706725 -12.560736 L 259.289048 -12.560736 C 262.205436 -12.560736 264.621872 -10.227626 264.621872 -7.311238 L 264.621872 8.603909 L 275.204195 8.603909 L 254.039549 35.101379 L 232.874904 8.603909 L 243.457226 8.603909 L 243.457226 -7.311238 C 243.457226 -10.227626 245.790337 -12.560736 248.706725 -12.560736 Z M 248.706725 -12.560736 " transform="matrix(0.0468795,0,0,0.0468795,0.00482147,9.831028)"/>
</g>
</svg>
